svgs/light/car-building.svg

<svg xmlns="http://www.w3.org/2000/svg" viewBox="0 0 640 512"><!--! Font Awesome Pro 6.6.0 by @fontawesome - https://fontawesome.com License - https://fontawesome.com/license (Commercial License) Copyright 2024 Fonticons, Inc. --><path d="M64 32l224 0c17.7 0 32 14.3 32 32l0 101.2c9.4-7.6 20.3-13.4 32-17L352 64c0-35.3-28.7-64-64-64L64 0C28.7 0 0 28.7 0 64L0 416c0 35.3 28.7 64 64 64l160 0 0-32L64 448c-17.7 0-32-14.3-32-32L32 64c0-17.7 14.3-32 32-32zM264 192l-48 0c-13.3 0-24 10.7-24 24l0 48c0 13.3 10.7 24 24 24l41.6 0c3.7-3.7 7.7-7.1 11.9-10.2l18.3-64.2C286.7 201.5 276.5 192 264 192zM88 64C74.7 64 64 74.7 64 88l0 48c0 13.3 10.7 24 24 24l48 0c13.3 0 24-10.7 24-24l0-48c0-13.3-10.7-24-24-24L88 64zm8 64l0-32 32 0 0 32-32 0zm96-40l0 48c0 13.3 10.7 24 24 24l48 0c13.3 0 24-10.7 24-24l0-48c0-13.3-10.7-24-24-24l-48 0c-13.3 0-24 10.7-24 24zm32 8l32 0 0 32-32 0 0-32zM88 192c-13.3 0-24 10.7-24 24l0 48c0 13.3 10.7 24 24 24l48 0c13.3 0 24-10.7 24-24l0-48c0-13.3-10.7-24-24-24l-48 0zm8 64l0-32 32 0 0 32-32 0zm128-32l32 0 0 32-32 0 0-32zM88 320c-13.3 0-24 10.7-24 24l0 48c0 13.3 10.7 24 24 24l48 0c13.3 0 24-10.7 24-24l0-48c0-13.3-10.7-24-24-24l-48 0zm8 64l0-32 32 0 0 32-32 0zM380.2 208l135.6 0c14.3 0 26.8 9.5 30.8 23.2L562.8 288c-.9 0-1.9 0-2.8 0l-224 0c-.9 0-1.9 0-2.8 0l16.2-56.8c3.9-13.7 16.5-23.2 30.8-23.2zm-61.5 14.4L297 298.1c-24.5 13.7-41 39.9-41 69.9l0 48 0 16 0 32 0 32c0 8.8 7.2 16 16 16s16-7.2 16-16l0-32 320 0 0 32c0 8.8 7.2 16 16 16s16-7.2 16-16l0-32 0-32 0-16 0-48c0-30-16.6-56.2-41-69.9l-21.6-75.7c-7.8-27.5-33-46.4-61.5-46.4l-135.6 0c-28.6 0-53.7 18.9-61.5 46.4zM608 416l0 16-320 0 0-16 0-48c0-26.5 21.5-48 48-48l224 0c26.5 0 48 21.5 48 48l0 48zM336 400a24 24 0 1 0 0-48 24 24 0 1 0 0 48zm248-24a24 24 0 1 0 -48 0 24 24 0 1 0 48 0z"/></svg>

<svg xmlns="http://www.w3.org/2000/svg" viewBox="0 0 640 512"><!--! Font Awesome Pro 6.4.0 by @fontawesome - https://fontawesome.com License - https://fontawesome.com/license (Commercial License) Copyright 2023 Fonticons, Inc. --><path d="M64 32H288c17.7 0 32 14.3 32 32V165.2c9.4-7.6 20.3-13.4 32-17V64c0-35.3-28.7-64-64-64H64C28.7 0 0 28.7 0 64V416c0 35.3 28.7 64 64 64H224V448H64c-17.7 0-32-14.3-32-32V64c0-17.7 14.3-32 32-32zM264 192H216c-13.3 0-24 10.7-24 24v48c0 13.3 10.7 24 24 24h41.6c3.7-3.7 7.7-7.1 11.9-10.2l18.3-64.2C286.7 201.5 276.5 192 264 192zM88 64C74.7 64 64 74.7 64 88v48c0 13.3 10.7 24 24 24h48c13.3 0 24-10.7 24-24V88c0-13.3-10.7-24-24-24H88zm8 64V96h32v32H96zm96-40v48c0 13.3 10.7 24 24 24h48c13.3 0 24-10.7 24-24V88c0-13.3-10.7-24-24-24H216c-13.3 0-24 10.7-24 24zm32 8h32v32H224V96zM88 192c-13.3 0-24 10.7-24 24v48c0 13.3 10.7 24 24 24h48c13.3 0 24-10.7 24-24V216c0-13.3-10.7-24-24-24H88zm8 64V224h32v32H96zm128-32h32v32H224V224zM88 320c-13.3 0-24 10.7-24 24v48c0 13.3 10.7 24 24 24h48c13.3 0 24-10.7 24-24V344c0-13.3-10.7-24-24-24H88zm8 64V352h32v32H96zM380.2 208H515.8c14.3 0 26.8 9.5 30.8 23.2L562.8 288c-.9 0-1.9 0-2.8 0H336c-.9 0-1.9 0-2.8 0l16.2-56.8c3.9-13.7 16.5-23.2 30.8-23.2zm-61.5 14.4L297 298.1c-24.5 13.7-41 39.9-41 69.9v48 16 32 32c0 8.8 7.2 16 16 16s16-7.2 16-16V464H608v32c0 8.8 7.2 16 16 16s16-7.2 16-16V464 432 416 368c0-30-16.6-56.2-41-69.9l-21.6-75.7c-7.8-27.5-33-46.4-61.5-46.4H380.2c-28.6 0-53.7 18.9-61.5 46.4zM608 416v16H288V416 368c0-26.5 21.5-48 48-48H560c26.5 0 48 21.5 48 48v48zM336 400a24 24 0 1 0 0-48 24 24 0 1 0 0 48zm248-24a24 24 0 1 0 -48 0 24 24 0 1 0 48 0z"/></svg>
